X: 42428
T: West Of Rockall
R: jig
M: 6/8
K: Amajor
e|:~c3 cBc|e2d c3|B3 B2[Ad]|c2B A/2F/2-F2|
~c3 cBc|e2d c3|~B3 BAG|1 F3 F2e:|2 F3 F2c||
|:~F3 FGA|G2F E3|B,3 A,B,C|E2F G/2E/2-E2|
~F3 FGA|G2F E2G|c2c B2G|1 F3 F2c:|2 F3 F2G||
|:c>FF G>FF|C>EG F3|G>EE B>EE|c<ec BAG|
c>FF G>FF|C>EG F2G|~c3 c2B|2 A>FF F2e:|
|:~c3 cBc|e2d c3|B2E G2F|E2F G/2E/2-E2|
[1 ~c3 cBc|e2d c3|~B3 BAG|F3 F2e:|
[2 ~F3 FGB|c2e E2G|c3 B2G|F3 F2||

